X: 641
T:Augusta
M:4/4
L:1/8
R:Reel
C:Charlie Soame
N:Posted to the woodenflute mailing list April 2003
Z:Steve Mansfield 26 February 2003
K:G
gf | e2B2 BcBA | G2E2 E3^c | d2 de fgfe | d2 ab agf^d | e2B2 BcBA |
G2E2 E3^d | e2g2 fbaf | g2e2e2 :: f2 | g3a g3d | BcdB G2B2 | A2AB cBcd |
e2A2A2 BA | G2g2 g3d | BcdB G3B |1 A2c2 BcBA | G2E2E2 :|2 e2g2 fbaf |
g2e2e2 ||
